app/[lang]/(home)/(new-home)/assets/ide-icons/codebuddy.svg

<svg
  width="64"
  height="64"
  viewBox="0 0 64 64"
  fill="none"
  xmlns="http://www.w3.org/2000/svg"
>
  <g opacity="0.8">
    <rect width="64" height="64" rx="12.1808" fill="#090A0A" />
    <path
      fill-rule="evenodd"
      clip-rule="evenodd"
      d="M30.3424 8.17747C31.3668 7.58602 32.631 7.58602 33.6554 8.17747L51.8036 18.6554C52.8274 19.2469 53.4586 20.3389 53.4587 21.5213V42.477C53.4587 43.6599 52.828 44.7543 51.8036 45.3458L33.6554 55.8236C32.631 56.4151 31.3668 56.4151 30.3424 55.8236L12.1942 45.3458C11.1701 44.7542 10.5391 43.6597 10.5391 42.477V21.5213C10.5392 20.3391 11.1708 19.2469 12.1942 18.6554L30.3424 8.17747ZM25.8185 18.2027C25.0906 17.7352 24.2522 18.6131 24.7521 19.3191L28.6484 24.8232C28.9104 25.1935 29.0896 25.6159 29.1732 26.0618C29.2569 26.508 29.2419 26.9683 29.1316 27.4087C29.0212 27.8485 28.8183 28.2603 28.5345 28.6139C28.2506 28.9676 27.8931 29.2552 27.4876 29.4581L24.1551 31.1244C21.9726 32.2162 21.8072 35.2693 23.8607 36.5897L38.1793 45.7956C38.907 46.2629 39.7476 45.3852 39.2484 44.6793L35.3494 39.1779C35.087 38.8074 34.9083 38.3828 34.8246 37.9365C34.7411 37.4908 34.7561 37.0324 34.8662 36.5924C34.9765 36.152 35.1791 35.7385 35.4633 35.3844C35.7475 35.0304 36.107 34.7432 36.513 34.5402L39.8427 32.8739C42.0258 31.7815 42.1906 28.7284 40.1371 27.4087L25.8185 18.2027Z"
      fill="url(#paint0_linear_33_1290)"
    />
  </g>
  <defs>
    <linearGradient
      id="paint0_linear_33_1290"
      x1="31.9989"
      y1="7.73389"
      x2="31.9989"
      y2="56.2672"
      gradientUnits="userSpaceOnUse"
    >
      <stop stop-color="#00E88D" />
      <stop offset="1" stop-color="#00E0DA" />
    </linearGradient>
  </defs>
</svg>

<svg xmlns="http://www.w3.org/2000/svg" fill="none" viewBox="0 0 64 64">
  <g opacity=".8">
    <rect width="64" height="64" fill="#090A0A" rx="12.18" />
    <path
      fill="url(#a)"
      fill-rule="evenodd"
      d="M30.34 8.18c1.03-.6 2.3-.6 3.32 0L51.8 18.66a3.31 3.31 0 0 1 1.66 2.86v20.96c0 1.18-.63 2.27-1.66 2.87L33.66 55.82c-1.03.6-2.3.6-3.32 0L12.2 45.35a3.31 3.31 0 0 1-1.65-2.87V21.52c0-1.18.63-2.27 1.65-2.86L30.34 8.18ZM25.82 18.2c-.73-.46-1.57.41-1.07 1.12l3.9 5.5a3.15 3.15 0 0 1-1.16 4.64l-3.33 1.66a3.15 3.15 0 0 0-.3 5.47l14.32 9.2c.73.47 1.57-.4 1.07-1.11l-3.9-5.5a3.16 3.16 0 0 1 1.16-4.64l3.33-1.67a3.15 3.15 0 0 0 .3-5.46l-14.32-9.2Z"
      clip-rule="evenodd"
    />
  </g>
  <defs>
    <linearGradient
      id="a"
      x1="32"
      x2="32"
      y1="7.73"
      y2="56.27"
      gradientUnits="userSpaceOnUse"
    >
      <stop stop-color="#00E88D" />
      <stop offset="1" stop-color="#00E0DA" />
    </linearGradient>
  </defs>
</svg>
